X:127
T:Oh Joe
M:2/2
L:1/8
Q:120
K:D
F3 F | A3 B | Afed | c2 B2 | G3 d | e3 d | cd cB | A2 A2 |
F3 F | A3 B | Afed | c2 B2 | e2 d2 | ge c>B | AA Bc | d2-=d ||
G | FA d>A |  FA d>A | df ed | c2 B2 | GA e>d | cd cB | A2- A G |
FA d>A |  FA d>A | df ed | c2 B2 | e2 f2 | ge c>B | AA Bc | d4 ||
